src/art_src/expand.svg

<?xml version="1.0" encoding="UTF-8" standalone="no"?>
<!-- Created with Inkscape (http://www.inkscape.org/) -->

<svg
   version="1.1"
   id="svg3927"
   width="32"
   height="32"
   viewBox="0 0 32 32"
   sodipodi:docname="expand.svg"
   inkscape:version="1.1.2 (b8e25be833, 2022-02-05)"
   xmlns:inkscape="http://www.inkscape.org/namespaces/inkscape"
   xmlns:sodipodi="http://sodipodi.sourceforge.net/DTD/sodipodi-0.dtd"
   xmlns:xlink="http://www.w3.org/1999/xlink"
   xmlns="http://www.w3.org/2000/svg"
   xmlns:svg="http://www.w3.org/2000/svg">
  <defs
     id="defs3931">
    <radialGradient
       inkscape:collect="always"
       xlink:href="#linearGradient2719"
       id="radialGradient2721"
       cx="21.000023"
       cy="24.833334"
       fx="21.000023"
       fy="24.833334"
       r="5"
       gradientTransform="matrix(-2.6022929e-7,-4.199999,5.30298,1.4286058e-4,-113.39066,106.36319)"
       gradientUnits="userSpaceOnUse" />
    <linearGradient
       inkscape:collect="always"
       id="linearGradient2719">
      <stop
         style="stop-color:#000000;stop-opacity:1;"
         offset="0"
         id="stop2715" />
      <stop
         style="stop-color:#000000;stop-opacity:0;"
         offset="1"
         id="stop2717" />
    </linearGradient>
  </defs>
  <sodipodi:namedview
     id="namedview3929"
     pagecolor="#ffffff"
     bordercolor="#666666"
     borderopacity="1.0"
     inkscape:pageshadow="2"
     inkscape:pageopacity="0.0"
     inkscape:pagecheckerboard="0"
     showgrid="true"
     inkscape:zoom="27.28125"
     inkscape:cx="15.981672"
     inkscape:cy="16"
     inkscape:window-width="3840"
     inkscape:window-height="2102"
     inkscape:window-x="-8"
     inkscape:window-y="32"
     inkscape:window-maximized="1"
     inkscape:current-layer="g3933">
    <inkscape:grid
       type="xygrid"
       id="grid4370" />
  </sodipodi:namedview>
  <g
     inkscape:groupmode="layer"
     inkscape:label="Image"
     id="g3933">
    <g
       id="g207">
      <rect
         style="display:inline;fill:#00ffff;fill-opacity:1;stroke:url(#radialGradient2721);stroke-width:1.23346"
         id="rect2539"
         width="13"
         height="14"
         x="4"
         y="3"
         ry="0.0018867099"
         inkscape:label="box" />
      <path
         style="display:inline;fill:#44aa00;stroke-width:1.2691"
         d="M 27,12.701525 24.039756,15 l 0.970234,-1.532014 0.970236,-1.532015 -3.350619,-0.01939 -3.35062,-0.01937 0.01586,-1.845063 0.01586,-1.8450624 3.350617,0.01939 3.350619,0.019379 -0.943771,-1.5430894 -0.943785,-1.5430895 2.872478,2.2906368 2.649894,1.966424 1.075045,0.7015235 -0.9903,0.675711 z"
         id="path1542"
         inkscape:label="arrow"
         sodipodi:nodetypes="ccccccccccccccccc" />
      <path
         id="path1542-3"
         style="display:inline;fill:#44aa00;stroke-width:1.2971"
         inkscape:label="arrow"
         d="M 4.8207268,23.427551 7.2523442,26.338311 9.269112,29.025567 9.983977,30 10.735244,28.946407 12.840579,26.35325 15.292135,23.538147 13.64605,24.462601 12,25.383662 12.03597,22.093707 12.07195,18.80375 10.108999,18.78372 8.143676,18.76364 8.107692,22.0536 8.071768,25.34017 6.4462313,24.385619 Z" />
    </g>
  </g>
</svg>

<?xml version="1.0" encoding="UTF-8" standalone="no"?><!DOCTYPE svg PUBLIC "-//W3C//DTD SVG 1.1//EN" "http://www.w3.org/Graphics/SVG/1.1/DTD/svg11.dtd"><svg width="100%" height="100%" viewBox="0 0 32 32" version="1.1" xmlns="http://www.w3.org/2000/svg" xmlns:xlink="http://www.w3.org/1999/xlink" xml:space="preserve" xmlns:serif="http://www.serif.com/" style="fill-rule:evenodd;clip-rule:evenodd;"><path id="arrow" d="M4.821,23.428l2.431,2.91l2.017,2.688l0.715,0.974l0.751,-1.054l2.106,-2.593l2.451,-2.815l-1.646,0.925l-1.646,0.921l0.072,-6.58l-1.963,-0.02l-1.965,-0.02l-0.036,3.29l-0.036,3.286l-1.626,-0.954l-1.625,-0.958Z" style="fill:#4a0;fill-rule:nonzero;"/><path id="arrow1" serif:id="arrow" d="M27,12.702l-2.96,2.298l1.94,-3.064l-3.35,-0.019l-3.351,-0.02l0.032,-3.69l3.35,0.019l3.351,0.02l-1.888,-3.086l2.873,2.29l2.65,1.967l1.075,0.701l-0.99,0.676l-2.732,1.908Z" style="fill:#4a0;fill-rule:nonzero;"/><rect id="box" x="4" y="3" width="13" height="14" style="fill:#0ff;stroke:url(#_Radial1);stroke-width:1.23px;"/><defs><radialGradient id="_Radial1" cx="0" cy="0" r="1" gradientUnits="userSpaceOnUse" gradientTransform="matrix(-1.30115e-06,-21,26.5149,0.000714303,18.3,18.1667)"><stop offset="0" style="stop-color:#000;stop-opacity:1"/><stop offset="1" style="stop-color:#000;stop-opacity:0"/></radialGradient></defs></svg>
